X:1
T:SOMETIMES
C:Henry Mancini
Z:All Rights Reserved
L:1/4
Q:1/4=120
M:4/4
K:F
V:1 treble nm="MusicXML Part"
%%MIDI program 0
V:1
"Dm9" d A3- |"Gm7" A z/ A/ G/A/ F- |"Fmaj7" F/G/ G A2- |"Bb/C" A/C/ [B,D]2 [CE] |"Fmaj9" E C2 A, | %5
w: ||||Some times, not|
"Gm7" (3:2:2G, D/- D/G,/ D2 |"Fmaj9" z E/F/ E/C/A,/E/ |"Gm7" D G,2 z |"F" z z A,/B,/"C/E" C | %9
w: of ten _ en ough,|We ref lect up on the|good things|And those thoughts|
 D/E/"Dm" (3:2:2F G/- G/E/"Dm7" (3:2:2F G/- | G/E/"Bm7" F3- |"Bbmaj9" F2 F/G/A/G/ | %12
w: al ways cen ter _ a round those|_ we love.|_ And I think a|
 F/A/"Am7"G/C/- C2- |"Dm" C2 D/E/ (3:2:2F G/- | G/E/"Bbmaj9" C3- |"Am" C2"Gm7" B, A, | %16
w: bout those peo ple _|_ who mean so much|_ to me.|_ And for|
 B,"Fmaj9" C- C/C/ F,- | F,/F,/"Gm6" F, G,2- |"C7" G, z A,"Gm" F, |"C" G,"Fmaj9" G, A,2- | %20
w: so man _ y years|_ have made me|_ so ve|ry happ py.|
 A,2"D" z D | E"Bm7" F3 | F E F E | D"Bb" E"C9" D2 |"Am" E C3- | C"Dm7" D A,2- |"Gm7" A,2 A, G, | %27
w: _ And|I count|the times I have|for got ten|to say:|_ Thank You|_ and just|
 A, F, G,"Fmaj9" G, | A,4- |"D" A,2 z2 |] %30
w: how much I love|them.|_|

